X:1
T:Haste to the Wedding
M:6/8
L:1/8
R:jig
C:Traditional
S:Robin Flower
K:D
A/2A/2|:AFA dgf|ede fdB
|1 AFA AdB|AGF E2 A/2A/2:|2 AFA faf|dcd dfg|
|:afa afa|bgb bag|fga agf|gfg efg|
a3 f3|ede fdB|AFA faf|dcd dfg:|
